X:1
T:Title
%%score { ( 1 3 ) | 2 }
L:1/8
M:3/4
K:A
V:1 treble nm="Grand Piano"
V:3 treble 
V:2 bass 
V:1
 z2 z2[Q:1/4=108] E2 | cB B2 A2 | A2 E2 E2 | F2 A2 F2 | E4 z2 | cB B2 A2 | A2 B2 c2 | %7
 [^DB]2 [DA]2 [DF]2 |[M:2/4] B4 |[M:1/4] E2 |[M:3/4] cB B2 A2 | A2 E2 E2 | F2 [FA]2 [FB]2 | %13
 [^Ec]4 [Ec]2 | [GB]2 [FA]2 [DF]2 | [CE]2 [CA]2 [Fd]2 | c2 c2 B2 |[M:2/4] [CA]4 |[M:1/4] e2 | %19
[M:3/4] e2 [EGB]2 [EGd]2 | c2 A2 c2 | [GB]2 [FA]2 [DF]2 | C2 C2 e2 | e2 [EGB]2 [EGd]2 | c2 A2 c2 | %25
 [^DB]2 [DA]2 [DF]2 |[M:2/4] B4 |[M:1/4] E2 |[M:3/4] cB B2 A2 | A2 E2 E2 | F2 [FA]2 [FB]2 | %31
 [^Ec]4 [Ec]2 | [GB]2 [FA]2 [DF]2 | [CE]2 [CA]2 [Fd]2 | c2 c2 B2 |[M:6/4] .[CA]6 z6 |] %36
V:2
 z6 | A,,2 [E,A,C]2 [E,A,C]2 | A,,2 [E,A,C]2 [E,A,C]2 | D,2 [F,A,D]2 [F,A,D]2 | %4
 A,,2 [E,A,]2 [E,A,C]2 | A,,2 [E,A,C]2 [E,A,C]2 | A,,2 [E,A,C]2 [E,A,C]2 | %7
 [B,,A,]2 [B,,A,]2 [B,,A,]2 |[M:2/4] [E,G,E]2 [F,A,]2 |[M:1/4] [G,B,D]2 | %10
[M:3/4] A,,2 [E,A,C]2 [E,A,C]2 | A,,2 [E,A,C]2 [E,A,C]2 | [D,A,D]2 [D,A,]2 [D,F,]2 | %13
 [C,G,]4 [C,G,]2 | [D,F,]2 [D,A,]2 [D,A,]2 | [A,,A,]2 [A,,A,]2 [A,,A,]2 | %16
 [E,A,E]2 [E,G,E]2 [E,G,D]2 |[M:2/4] [A,,A,]4 |[M:1/4] z2 |[M:3/4] [E,,E,]2 [E,G,B,D]2 [E,G,B,D]2 | %20
 A,,2 [E,A,CE]2 [E,A,CE]2 | [D,A,]2 [D,A,]2 [D,A,]2 | [A,,A,]2 [E,A,]2 [E,A,C]2 | %23
 [E,,E,]2 [E,G,B,]2 [E,G,B,D]2 | A,,2 [E,A,CE]2 [E,A,CE]2 | [B,,A,]2 [B,,A,]2 [B,,A,]2 | %26
[M:2/4] [E,G,E]2 [F,A,]2 |[M:1/4] [G,B,D]2 |[M:3/4] A,,2 [E,A,C]2 [E,A,C]2 | %29
 A,,2 [E,A,C]2 [E,A,C]2 | [D,A,D]2 [D,A,]2 [D,F,]2 | [C,G,]4 [C,G,]2 | [D,F,]2 [D,A,]2 [D,A,]2 | %33
 [A,,A,]2 [A,,A,]2 [A,,A,]2 | [E,A,E]2 [E,G,E]2 [E,G,D]2 |[M:6/4] .[A,,A,]6 z6 |] %36
V:3
 x6 | x6 | x6 | x6 | z2 C2 E2 | x6 | x6 | x6 |[M:2/4] z2 ^D2 |[M:1/4] x2 |[M:3/4] x6 | x6 | x6 | %13
 x6 | x6 | x6 | x6 |[M:2/4] x4 |[M:1/4] x2 |[M:3/4] x6 | x6 | x6 | E4 z2 | x6 | x6 | x6 | %26
[M:2/4] z2 ^D2 |[M:1/4] x2 |[M:3/4] x6 | x6 | x6 | x6 | x6 | x6 | x6 |[M:6/4] x12 |] %36

